X:92
T:Welcome Royal Charlie
C:arr. Carlo Minasi
M:2/4
L:1/8
B:Chappell's One Hundred Scotch Melodies
B:Arranged for the Concertina by Carlo Minasi
Q:"Moderato  "1/4=120
Z:Peter Dunk 2012
K:F
!mf!c|L(BA[G=B,]F)|([EC]>FGc)|L(BAGF)|F[fcAF][fcAF] c|\
L(BA[G=B,]F)|([EC]>FGc)|([AF]<c) ([GC]>A)|([F2A,2] f) c|
([AF]>[BG][cA][dB])|([BG]>c[BEC]G)|\
([AF]>[BG][cA][fA])|([f/B/G/]e/d/e/) [fcA] c|\
([AF]>[BG][cA][dB])|([BG]>c[BEC]G)|\
([AF]<c) ([GC]>A)|[F2A,2] [fcAF]||

